Papirus-Dark/symbolic/status/gser-icon-stopped-symbolic.svg

<svg xmlns="http://www.w3.org/2000/svg" width="16" height="16" version="1.1">
 <path style="fill:#d3dae3" d="M 1.015625,2 C 0.4528312,2 0,2.4575486 0,3.0273438 V 12.972656 C 0,13.542468 0.45281344,14 1.015625,14 h 13.96875 C 15.54717,14 16,13.542451 16,12.972656 V 3.0273438 C 16,2.4575314 15.547186,2 14.984375,2 Z M 5,4 C 7.2091,4 9,5.7909 9,8 9,10.2091 7.2091,12 5,12 2.7909,12 1,10.2091 1,8 1,5.7909 2.7909,4 5,4 Z m 6.138672,1 h 3 c 0.277,0 0.5,0.223 0.5,0.5 0,0.277 -0.223,0.5 -0.5,0.5 h -3 c -0.277,0 -0.5,-0.223 -0.5,-0.5 0,-0.277 0.223,-0.5 0.5,-0.5 z m 0,2 h 3 c 0.277,0 0.5,0.223 0.5,0.5 0,0.277 -0.223,0.5 -0.5,0.5 h -3 c -0.277,0 -0.5,-0.223 -0.5,-0.5 0,-0.277 0.223,-0.5 0.5,-0.5 z m 0,2 h 3 c 0.277,0 0.5,0.223 0.5,0.5 0,0.277 -0.223,0.5 -0.5,0.5 h -3 c -0.277,0 -0.5,-0.223 -0.5,-0.5 0,-0.277 0.223,-0.5 0.5,-0.5 z"/>
 <path style="fill:#d3dae3;opacity:0.3" d="m 5,6.0000002 c -1.1046,0 -2,0.8954667 -2,2 C 3,9.1045336 3.8954,10 5,10 6.1045333,10 7,9.1045336 7,8.0000002 c 0,-1.1045333 -0.8954667,-2 -2,-2 z" class="ColorScheme-Highlight"/>
</svg>

<svg xmlns="http://www.w3.org/2000/svg" width="16" height="16" version="1.1">
 <path style="fill:#d3dae3" d="M 1,2 C 0.446,2 0,2.446 0,3 V 13 C 0,13.554 0.446,14 1,14 H 15 C 15.554,14 16,13.554 16,13 V 3 C 16,2.446 15.554,2 15,2 Z M 5,4 A 4,4 0 0 1 9,8 4,4 0 0 1 5,12 4,4 0 0 1 1,8 4,4 0 0 1 5,4 Z M 11,5 H 14 C 14.277,5 14.5,5.223 14.5,5.5 14.5,5.777 14.277,6 14,6 H 11 C 10.723,6 10.5,5.777 10.5,5.5 10.5,5.223 10.723,5 11,5 Z M 11,7 H 14 C 14.277,7 14.5,7.223 14.5,7.5 14.5,7.777 14.277,8 14,8 H 11 C 10.723,8 10.5,7.777 10.5,7.5 10.5,7.223 10.723,7 11,7 Z M 11,9 H 14 C 14.277,9 14.5,9.223 14.5,9.5 14.5,9.777 14.277,10 14,10 H 11 C 10.723,10 10.5,9.777 10.5,9.5 10.5,9.223 10.723,9 11,9 Z"/>
 <circle style="opacity:0.3;fill:#d3dae3" cx="5" cy="8" r="2"/>
</svg>
